X: 1327
T: Leylâ Bir Özge-candır
C: Sadettin Kaynak
O: Turkey
F: http://compmusic.upf.edu/node/140
N: segah--sarki--duyek--leyla_bir--sadettin_kaynak
N: makam= segah
N: form= sarki
N: usul= duyek = 8/4
M: 8/4
L: 1/16
K: C _1/4B _1/4e ^f 
Q: 1/4=144
%%MIDI tuningsystem comma53
Bc B^A B2 c2 de cd Bc =AB  | G_2/4e2e ef ed zd2d de dc  | 
w:  ARANAĞME  |   | 
zc2c cd cB df2_2/4e dc B^A  | B^A G2 A2 G2 B3/2A/ Bc BA B2  | 
w:   |   | 
B^A G2 A2 G2 B3/2A/ Bc BA Bc  | d4 B2 c2 d8  | \
w:   |  *  Ley *  lâ   | 
c2 d4 d2 d3/2f/ _2/4ed c4  | 
w:  bir_ öz ge  can *  *  *  dır    | 
cB AG d2 _2/4e2 f8  | _2/4e2 f4 g2 fe ed d4  | \
w:  SAZ *  *  *  Ka ra  göz  |  lü  cey *  lan *  *  *  dır    | 
d2 g6 ga f2 fg e2  | 
w:  Do yul maz   | 
z2 d4 d2 d2 {e}dc B4  | _2/4ed e2 d2 e2 e2 d2 e2 d2  | \
w:  hüsn_ ü  an *  *  *  dır    |  SAZ *  *  Ka nıl maz   | 
z2 _2/4e2 d2 g2 fe de d4  | 
w:  bir  *  i çim  *  *  *  su    | 
.G.B .d2 d2 cB c8  | c8 c2 B2 B2 c2  | \
w:  SAZ *  *  Ley *  *  lâ   |  *  *  *  Ley  | 
d8 e3c c3B  | B8 GB G2 B4  | 
w:  lâ  ah  *  Ley  |  lâ   SAZ  | 
Bc B^A B2 c2 de cd Bc =AB  | G_2/4e2e ef ed zd2d de dc  | 
w:  ARANAĞME  |   | 
zc2c cd cB df2_2/4e dc B^A  | B^A G2 A2 G2 B3/2A/ Bc BA B2  | 
w:   |   | 
B^A G2 A2 G2 B3/2A/ Bc BA Bc  | d4 B2 c2 d8  | \
w:   |  *  Ley *  lâ   | 
c2 d4 d2 d3/2f/ _2/4ed c4  | 
w:  bir_ öz ge  can *  *  *  dır    | 
cB AG d2 _2/4e2 f8  | _2/4e2 f4 g2 fe ed d4  | \
w:  SAZ *  *  *  Ka ra  göz  |  lü  cey *  lan *  *  *  dır    | 
d2 g6 ga f2 fg e2  | 
w:  Do yul maz   | 
z2 d4 d2 d2 {e}dc B4  | _2/4ed e2 d2 e2 e2 d2 e2 d2  | \
w:  hüsn_ ü  an *  *  *  dır    |  SAZ *  *  Ka nıl maz   | 
z2 _2/4e2 d2 g2 fe de d4  | 
w:  bir  *  i çim  *  *  *  su    | 
.G.B .d2 d2 cB c8  | c8 c2 B2 B2 c2  | \
w:  SAZ *  *  Ley *  *  lâ   |  *  *  *  Ley  | 
d8 e3c c3B  | B8 GB G2 B4  | 
w:  lâ  ah  *  Ley  |  lâ   SAZ  | 
Bc B^A B2 c2 de cd Bc =AB  | G_2/4e2e ef ed zd2d de dc  | 
w:  ARANAĞME  |   | 
zc2c cd cB df2_2/4e dc B^A  | B^A G2 A2 G2 B3/2A/ Bc BA B2  | 
w:   |   | 
B^A G2 A2 G2 zB cd ef g^a  | b2 b6 b4 b4  | \
w:   |  *  Â şık lar   | 
b2 c'2 b2 ^a2 g3f e4  | 
w:  le vend  *  *  ol *  sa    | 
z2 B6 B4 B4  | B2 c2 B2 ^A2 G3F E4  | \
w:  SAZ  |   | 
z2 c'4 b2 c'3b c'3b  | b2 c'2 b2 ^a2 g3a b4  | 
w:  Sev *  da *  lar   |  ke mend_ *  *  ol *  sa    | 
z2 c4 B2 c3B c3B  | B2 c2 B2 ^A2 G3A Bd ef  | \
w:  SAZ  |   | 
g2 g4 g2 g4 f2 e2  | 
w:  *  Bir bi ri  | 
d2 g2 f2 e2 d2 dc B4  | _2/4ed e2 d2 e2 e2 d2 e2 d2  | \
w:  ne  bend  *  *  ol *  *  sa    |  SAZ *  *  E le  geç  | 
d2 _2/4e2 d2 g2 fe de d4  | 
w:  *  mez  *  o  â *  *  *  hu    | 
GB d2 d2 cB c8  | c8 c2 B2 B2 c2  | d8 e3c c3B  | \
w:  SAZ *  *  Ley *  *  lâ   |  *  *  *  Ley  |  lâ  ah  *  Ley  | 
B12 z4  | |


